!!!COM: Palestrina, Giovanni Perluigi da
!!!OPR: Repleatur os meum laude
!!!OTL: Credo
**kern	**kern	**kern	**kern	**kern
*Ibass	*Itenor	*Icalto	*Icalto	*Icant
!Bassus	!Tenor	!Altus 2	!Altus 1	!Cantus
*clefF4	*clefGv2	*clefG2	*clefG2	*clefG2
*k[]	*k[]	*k[]	*k[]	*k[]
*E:phr	*E:phr	*E:phr	*E:phr	*E:phr
*M4/2	*M4/2	*M4/2	*M4/2	*M4/2
=1	=1	=1	=1	=1
0r	0r	0r	1B	0r
.	.	.	2B	.
.	.	.	2B	.
=2	=2	=2	=2	=2
0r	0r	0r	2d	0r
.	.	.	2d	.
.	.	.	1c	.
=3	=3	=3	=3	=3
1E	0r	0r	1B	0r
2E	.	.	2r	.
2E	.	.	2e	.
=4	=4	=4	=4	=4
2G	0r	0r	2e	0r
2G	.	.	2e	.
1F	.	.	2f	.
.	.	.	2d	.
=5	=5	=5	=5	=5
1E	0r	0r	4g	1e
.	.	.	4f	.
.	.	.	4e	.
.	.	.	4d	.
2r	.	.	2c	2e
2E	.	.	4B	2e
.	.	.	4A	.
=6	=6	=6	=6	=6
2E	0r	0r	2B	2g
2E	.	.	2.e	2g
2F	.	.	.	1f
.	.	.	4d	.
2D	.	.	[2d	.
=7	=7	=7	=7	=7
2.A	0r	0r	2d]	1e
.	.	.	2c	.
4G	.	.	.	.
4F	.	.	[1f	2r
4E	.	.	.	.
[2D	.	.	.	2a
=8	=8	=8	=8	=8
2D]	0r	0r	2f]	2a
2C	.	.	2e	2a
1BB	.	.	1d	2b
.	.	.	.	2g
=9	=9	=9	=9	=9
2AA	1E	0r	2c	2.cc
2.AA	.	.	2A	.
.	.	.	.	4b
.	2E	.	1c	2a
4BB	.	.	.	.
4C	2E	.	.	[2g
4D	.	.	.	.
=10	=10	=10	=10	=10
2E	2G	0r	2B	4g]
.	.	.	.	4f
2C	2G	.	2c	1e
1D	1F	.	2A	.
.	.	.	2B	2d
=11	=11	=11	=11	=11
[0AA	1E	1A	2.c	2e
.	.	.	.	1a
.	.	.	8B	.
.	.	.	8A	.
.	2r	2A	2.c	.
.	2A	2A	.	[2cc
.	.	.	4d	.
=12	=12	=12	=12	=12
1AA]	2A	2c	[0e	2cc]
.	2A	2c	.	4b
.	.	.	.	4a
1E	2B	1B	.	4g
.	.	.	.	4a
.	2G	.	.	2b
=13	=13	=13	=13	=13
0r	1c	1A	1e]	2e
.	.	.	.	1a
.	[1B	2r	1d	.
.	.	2d	.	4g
.	.	.	.	4f#
=14	=14	=14	=14	=14
1r	1B]	2d	2r	1g#
.	.	2d	2d	.
2r	1A	2e	4c	2a
.	.	.	4A	.
[2A	.	2c	[2e	[2cc
=15	=15	=15	=15	=15
2A]	0r	1f	2e]	2cc]
2F	.	.	1d	2a
2G	.	[1e	.	2b
2G	.	.	4c	2b
.	.	.	4B	.
=16	=16	=16	=16	=16
1A	2r	1e]	1c	2.a
.	1A	.	.	.
.	.	.	.	4g
2.D	.	1d	2A	2.f
.	2F	.	[2d	.
4C	.	.	.	4e
=17	=17	=17	=17	=17
2BB	2G	0r	2d]	1d
2BB	2G	.	2B	.
1AA	1A	.	2c	2f
.	.	.	2c	2e
=18	=18	=18	=18	=18
0r	2.D	2r	2d	1f
.	.	1d	1A	.
.	4E	.	.	.
.	2F	.	.	2r
.	2G	2B	2B	2d
=19	=19	=19	=19	=19
1r	1E	2c	2G	2e
.	.	2c	2G	1g
1D	1r	1d	1A	.
.	.	.	.	2f#
=20	=20	=20	=20	=20
2E	0r	2.G	2c	4g
.	.	.	.	4a
1G	.	.	2B	4b
.	.	4A	.	4cc
.	.	2B	2d	4b
.	.	.	.	4a
2C	.	2c	2e	[2g
=21	=21	=21	=21	=21
1D	2r	1A	1d	2g]
.	2D	.	.	2f#
2.C	2E	1r	2r	1g
.	[2G	.	2G	.
4BB	.	.	.	.
=22	=22	=22	=22	=22
2AA	2G]	0r	2A	2.c
2AA	2F#	.	2.c	.
.	.	.	.	4d
2GG	2.G	.	.	2e
.	.	.	8B	.
.	.	.	8A	.
[2G	.	.	4B	2d
.	4A	.	4c	.
=23	=23	=23	=23	=23
2G]	2B	2r	2d	1g
2C	2.c	2G	2e	.
2F	.	2A	2.c	1r
.	8B	.	.	.
.	8A	.	.	.
2F	[2A	[2c	.	.
.	.	.	4d	.
=24	=24	=24	=24	=24
2E	4A]	2c]	2e	1r
.	8G	.	.	.
.	8F#	.	.	.
2E	2G#	2B	2e	.
1AA	[1A	2.c	2.e	2r
.	.	.	.	2a
.	.	4d	4d	.
=25	=25	=25	=25	=25
2r	1A]	2e	4c	1a
.	.	.	4B	.
2D	.	2.f	2A	.
1D	1r	.	1d	2b-
.	.	8e	.	.
.	.	8d	.	.
.	.	[2d	.	[2a
=26	=26	=26	=26	=26
1E	1G	4d]	0r	2a]
.	.	8c	.	.
.	.	8B	.	.
.	.	2c#	.	1g
1D	1A	[1d	.	.
.	.	.	.	2f#
=27	=27	=27	=27	=27
2.G	1B	1d]	2r	0g
.	.	.	2G	.
4F	.	.	.	.
2E	1G	1r	2B	.
2C	.	.	[2c	.
=28	=28	=28	=28	=28
2.F	1.A	1c	4c]	0r
.	.	.	4B	.
.	.	.	4A	.
4E	.	.	4G	.
1D	.	1d	1F	.
.	2A	.	.	.
=29	=29	=29	=29	=29
1C	1c	1e	2G	1g
.	.	.	1E	.
1AA	1c	1c	.	1a
.	.	.	2E	.
=30	=30	=30	=30	=30
1GG	0B	1.d	2G	1b
.	.	.	4G	.
.	.	.	4A	.
1G	.	.	4B	1g
.	.	.	4c	.
.	.	2d	[2d	.
=31	=31	=31	=31	=31
2.D	0A	1f	2d]	1a
.	.	.	2d	.
4E	.	.	.	.
1F	.	1f	1c	2a
.	.	.	.	2a
=32	=32	=32	=32	=32
1C	0G	0e	1c	2cc
.	.	.	.	2cc
2E	.	.	2r	1b
2E	.	.	2G	.
=33	=33	=33	=33	=33
1G	1r	0d	2B	2b
.	.	.	2B	2g
1G	2r	.	4d	2b
.	.	.	4G	.
.	2G	.	2g	2b
=34	=34	=34	=34	=34
0r	2A	0c	1e	2.cc
.	2A	.	.	.
.	.	.	.	4b
.	2.c	.	2.e	2a
.	.	.	.	2g
.	4B	.	4d	.
=35	=35	=35	=35	=35
0r	2A	1r	2c	4f
.	.	.	.	4e
.	2G	.	2B	1g
.	2c	2r	2A	.
.	2c	2c	2A	2f#
=36	=36	=36	=36	=36
1G	1B	2d	2G	1g
.	.	2d	2B	.
2.A	1r	2.f	2.c	1r
4G	.	4e	4B	.
=37	=37	=37	=37	=37
2F	0r	2d	2A	1r
2E	.	2c	2G	.
2D	.	2f	2d	2r
2D	.	2f	2d	[2a
=38	=38	=38	=38	=38
0AA	2r	1e	2.c	2a]
.	1A	.	.	2a
.	.	.	4d	.
.	.	1r	1e	2.cc
.	2A	.	.	.
.	.	.	.	4b
=39	=39	=39	=39	=39
0r	2.c	0r	2r	2a
.	.	.	2e	2g
.	4B	.	.	.
.	2A	.	2e	2cc
.	2G	.	[2g	[2b
=40	=40	=40	=40	=40
0r	2c	2r	4g]	4b]
.	.	.	8f	4a
.	.	.	8e	.
.	2d	1d	2f	1a
.	1B	.	[1d	.
.	.	2d	.	2g#
=41	=41	=41	=41	=41
1D	1A	2.f	1d]	0a
.	.	4e	.	.
2D	1r	2d	2.f	.
[2F	.	2c	.	.
.	.	.	4e	.
=42	=42	=42	=42	=42
2F]	0r	2f	4d	0r
.	.	.	4c	.
2E	.	2g	2.e	.
4C	.	1e	.	.
4D	.	.	4d	.
4E	.	.	[2c	.
4F	.	.	.	.
=43	=43	=43	=43	=43
1G	1r	1d	2c]	2r
.	.	.	2B	2d
1C	2r	1r	1c	1e
.	2G	.	.	.
=44	=44	=44	=44	=44
2F	1A	0r	2r	2f
2A	.	.	2c	2f
2.G	2B	.	1d	1g
.	2B	.	.	.
4F	.	.	.	.
=45	=45	=45	=45	=45
1E	2c	1r	2e	2r
.	2.B	.	2e	2g
2D	.	2r	2f	1a
.	4A	.	.	.
2C	[2A	2c	[2e	.
=46	=46	=46	=46	=46
1BB	4A]	1d	4e]	2b
.	4G#	.	4d	.
.	4G#	.	2d	2b
.	4F#	.	.	.
1AA	[1A	2e	2c	2.cc
.	.	2e	2A	.
.	.	.	.	4b
=47	=47	=47	=47	=47
0r	2A]	2f	1c	4a
.	.	.	.	4b
.	2A	2.e	.	4cc
.	.	.	.	4a
.	2G	.	1d	2b
.	.	4d	.	.
.	2F	[2d	.	[2a
=48	=48	=48	=48	=48
0r	1E	4d]	2r	2a]
.	.	4c#	.	.
.	.	4c#	2G	1g
.	.	4B	.	.
.	1D	[1d	2A	.
.	.	.	2A	2f#
=49	=49	=49	=49	=49
1G	1r	2d]	2.B	0g
.	.	2d	.	.
.	.	.	8c	.
.	.	.	8d	.
2E	1G	2c	1e	.
2E	.	2B	.	.
=50	=50	=50	=50	=50
1F#	2A	1A	0d	1r
.	2A	.	.	.
1G	1B	1G	.	2r
.	.	.	.	2d
=51	=51	=51	=51	=51
1C	1c	1r	2r	2e
.	.	.	2G	2e
2F	1r	1c	2A	1f
2A	.	.	2A	.
=52	=52	=52	=52	=52
2.G	1r	2d	1.B	0g
.	.	2d	.	.
4F	.	.	.	.
2E	1G	1e	.	.
2E	.	.	2c	.
=53	=53	=53	=53	=53
1D	2A	1f	0d	1r
.	2A	.	.	.
1GG	2B	1r	.	1d
.	2B	.	.	.
=54	=54	=54	=54	=54
2.C	1c	1r	1G	2e
.	.	.	.	2e
4BB	.	.	.	.
2AA	1r	1c	1A	2f
2AA	.	.	.	2f
=55	=55	=55	=55	=55
1GG	0r	2d	1B	2g
.	.	2d	.	1g
1C	.	2e	2.c	.
.	.	2e	.	[2a
.	.	.	4B	.
=56	=56	=56	=56	=56
1D	1r	1f	2A	2a]
.	.	.	2d	1b
1E	2r	1r	4g	.
.	.	.	4f	.
.	2G	.	4e	[2cc
.	.	.	4d	.
=57	=57	=57	=57	=57
2F	1A	0r	4c	2cc]
.	.	.	4A	.
1D	.	.	1d	1f
.	1B	.	.	.
[2E	.	.	2G	[2g
=58	=58	=58	=58	=58
2E]	1c	1r	2g	2g]
2F	.	.	4f	2a
.	.	.	4e	.
2G	1r	2r	4d	2b-
.	.	.	4e	.
2F	.	2c	[2f	[2a
=59	=59	=59	=59	=59
1B-	1r	1d	4f]	2a]
.	.	.	4e	.
.	.	.	1d	2g
1A	2r	1e	.	[1a
.	2A	.	2c#	.
=60	=60	=60	=60	=60
2r	2D	1f	1d	1a]
2D	2A	.	.	.
2E	2G	1r	2r	2r
2F	2F	.	2A	2d
=61	=61	=61	=61	=61
1G	1E	1r	2B	1e
.	.	.	2c#	.
1A	1D	2r	2d	1f#
.	.	2d	2A	.
=62	=62	=62	=62	=62
2r	0r	2G	2B	2g
2G	.	2d	2B	2g
2C	.	2c	1e	2g
2GG	.	2B	.	2g
=63	=63	=63	=63	=63
4AA	0r	1A	1e	1cc
4BB	.	.	.	.
4C	.	.	.	.
4D	.	.	.	.
2.E	.	1G	2r	[1b
.	.	.	[2B	.
4D	.	.	.	.
=64	=64	=64	=64	=64
4E	2r	0r	2B]	1b]
4F	.	.	.	.
1G	1E	.	2B	.
.	.	.	2e	1r
4F	2E	.	2e	.
4E	.	.	.	.
=65	=65	=65	=65	=65
1F	2A	0r	1d	1r
.	2A	.	.	.
1E	1G#	.	2.e	2r
.	.	.	.	[2e
.	.	.	4d	.
=66	=66	=66	=66	=66
0r	1A	2r	4c	2e]
.	.	.	4B	.
.	.	1A	1c	2e
.	1r	.	.	2a
.	.	2A	4B	2a
.	.	.	4A	.
=67	=67	=67	=67	=67
0r	1r	2d	1B	1g#
.	.	2d	.	.
.	2r	1c#	1A	2.a
.	[2A	.	.	.
.	.	.	.	4g
=68	=68	=68	=68	=68
1.D	2A]	1d	0r	4f
.	.	.	.	4e
.	2A	.	.	1f
.	2d	1r	.	.
2D	2d	.	.	4e
.	.	.	.	4d
=69	=69	=69	=69	=69
1A	1c#	1r	2r	1e
.	.	.	2A	.
2F	2.d	2r	2A	[1d
[2G	.	[2d	2B	.
.	4c	.	.	.
=70	=70	=70	=70	=70
2G]	2B	2d]	2G	1d]
2F	2A	2d	2A	.
1E	1G	2g	2B	1r
.	.	2g	2c#	.
=71	=71	=71	=71	=71
1D	2A	1f#	2d	1r
.	2A	.	1d	.
1GG	1B	2.g	.	2r
.	.	.	2d	[2g
.	.	4f	.	.
=72	=72	=72	=72	=72
0r	2c	2e	2g	2g]
.	2B	2d	2g	2g
.	1A	1c	1f#	2cc
.	.	.	.	2cc
=73	=73	=73	=73	=73
1GG	2G	2d	1g	1b
.	2G	2d	.	.
1C	1E	1e	1g	2.cc
.	.	.	.	4b
=74	=74	=74	=74	=74
2D	0r	2f	2r	2a
2E	.	2e	2.c	2g
2F	.	1d	.	2a
.	.	.	8B	.
.	.	.	8A	.
2G	.	.	2B	4g
.	.	.	.	4f
=75	=75	=75	=75	=75
2.A	1r	2c	1c	4e
.	.	.	.	4d
.	.	2c	.	2e
4G	.	.	.	.
1F	2r	1A	2r	1a
.	2A	.	2c	.
=76	=76	=76	=76	=76
1E	2A	0r	2c	2r
.	2G	.	2B	2e
2r	2.c	.	1A	2e
2F	.	.	.	2c
.	4B	.	.	.
=77	=77	=77	=77	=77
2F	2A	1r	2.c	2f
2C	2G	.	.	1e
.	.	.	4B	.
1D	2F	2r	[1A	.
.	2F	2d	.	2d
=78	=78	=78	=78	=78
1AA	1E	2d	2A]	1e
.	.	2c	2A	.
1D	1r	2.f	[1A	4d
.	.	.	.	4e
.	.	.	.	4f
.	.	4e	.	4g
=79	=79	=79	=79	=79
2.F	2r	2d	1A]	1a
.	2A	2c	.	.
4E	.	.	.	.
2D	2A	2B	1r	2r
2E	2G	2B	.	2e
=80	=80	=80	=80	=80
1AA	1.c	1A	2r	2e
.	.	.	2A	2c
1r	.	1r	2A	2f
.	2B	.	2G	2e
=81	=81	=81	=81	=81
0r	2A	2r	2c	2f
.	2G	2d	2B	2g
.	2.A	2d	2r	2.e
.	.	2c	[2A	.
.	4G	.	.	8f
.	.	.	.	8g
=82	=82	=82	=82	=82
1D	1F	1.f	4A]	0a
.	.	.	4G	.
.	.	.	4F	.
.	.	.	4G	.
2D	1r	.	4A	.
.	.	.	4B	.
2C	.	2e	2c	.
=83	=83	=83	=83	=83
2F	0r	2d	2d	1r
2E	.	2c	2e	.
1D	.	2.d	1f	2r
.	.	.	.	2a
.	.	4c	.	.
=84	=84	=84	=84	=84
1E	1r	1B	1e	2a
.	.	.	.	2g
1AA	2r	1r	2r	[1cc
.	2A	.	2e	.
=85	=85	=85	=85	=85
2r	2A	0r	1e	2cc]
2E	2G	.	.	2b
1F	2.c	.	2A	2.a
.	.	.	[2c	.
.	4B	.	.	4g
=86	=86	=86	=86	=86
2F	2A	1r	4c]	2f
.	.	.	8B	.
.	.	.	8A	.
2G	2G	.	2B	1e
1A	1F	2r	2c	.
.	.	2d	2A	2d
=87	=87	=87	=87	=87
1AA	1E	2d	2r	1e
.	.	2c	2A	.
[1D	1r	2.f	2A	4d
.	.	.	.	4e
.	.	.	2F	4f
.	.	4e	.	4g
=88	=88	=88	=88	=88
1D]	0r	2d	1f	4a
.	.	.	.	4b-
.	.	2c	.	1a
1E	.	1B	1e	.
.	.	.	.	2g#
=89	=89	=89	=89	=89
1AA	1r	1A	1c#	1a
[1D	[1A	1r	[1d	[1f#
=90	=90	=90	=90	=90
1D]	1A]	0r	1d]	1f#]
1GG	1d	.	1B	1g
=91	=91	=91	=91	=91
1AA	1c#	1r	1A	1e
1D	1d	[1d	1A	1f#
=92	=92	=92	=92	=92
0GG	0B	1d]	4G	0g
.	.	.	4A	.
.	.	.	4B	.
.	.	.	4c	.
.	.	1g	1d	.
=93	=93	=93	=93	=93
1D	1A	1f#	2.d	1a
.	.	.	4c	.
1r	1E	1g	2B	1b
.	.	.	[2e	.
=94	=94	=94	=94	=94
0AA	1.A	0e	4e]	1.cc
.	.	.	4d	.
.	.	.	4c	.
.	.	.	4B	.
.	.	.	[1A	.
.	2A	.	.	2a
=95	=95	=95	=95	=95
1.D	0F#	1d	1A]	1a
.	.	1A	2r	2.dd
2D	.	.	[2d	.
.	.	.	.	4cc
=96	=96	=96	=96	=96
1GG	1G	1.d	2d]	4b
.	.	.	.	4a
.	.	.	1g	1b
1D	1A	.	.	.
.	.	2d	2f	[2a
=97	=97	=97	=97	=97
1E	1r	0B	[0e	2a]
.	.	.	.	4g
.	.	.	.	4f#
1r	1E	.	.	1g#
=98	=98	=98	=98	=98
1AA	1A	1c	1e]	2.a
.	.	.	.	4g
1D	1A	1d	1f	4f
.	.	.	.	4e
.	.	.	.	4d
.	.	.	.	4c
=99	=99	=99	=99	=99
1E	1G#	1r	1e	4B
.	.	.	.	4A
.	.	.	.	2B
1F	2.A	1A	1c	2A
.	.	.	.	[2a
.	4G	.	.	.
=100	=100	=100	=100	=100
0D	1.F	1d	1f	2a]
.	.	.	.	2a
.	.	1d	1d	1a
.	2F	.	.	.
=101	=101	=101	=101	=101
1AA	1E	1c#	1e	1a
1D	1r	2.d	2f	2r
.	.	.	2f	[2a
.	.	4c	.	.
=102	=102	=102	=102	=102
0E	1r	1.B	0e	2a]
.	.	.	.	4g
.	.	.	.	4f#
.	1E	.	.	2g#
.	.	2B	.	2g#
=103	=103	=103	=103	=103
1AA	1E	1A	1c	2a
.	.	.	.	2a
1D	1F#	1r	1d	1a
=104	=104	=104	=104	=104
1GG	1G	1r	1d	1b
1AA	1E	1A	2c	2.cc
.	.	.	[2e	.
.	.	.	.	4b
=105	=105	=105	=105	=105
0D	1.F	1A	2e]	1a
.	.	.	4d	.
.	.	.	4c	.
.	.	1B	1d	1dd
.	4E	.	.	.
.	4D	.	.	.
=106	=106	=106	=106	=106
0AA	0A	1c	[0e	0cc
.	.	1A	.	.
=107	=107	=107	=107	=107
0E	0G#	0B	0e]	0b
*	*	*	*-	*-
!! Crucifixus
*Ibass	*Icalto	*Icant
!Bassus	!Altus	!Cantus
*clefF4	*clefG2	*clefG2
*k[]	*k[]	*k[]
*E:phr	*E:phr	*E:phr
*M4/2	*M4/2	*M4/2
=108	=108	=108
0r	1.e	0r
.	2c	.
=109	=109	=109
1r	1d	0r
[1A	1e	.
=110	=110	=110
2A]	1A	0r
2F	.	.
1G	2B	.
.	[2d	.
=111	=111	=111
1A	2d]	1.a
.	2c#	.
1D	1d	.
.	.	2f
=112	=112	=112
2E	1B	1g
1G	.	.
.	2r	1a
2F#	2A	.
=113	=113	=113
1G	2B	1d
.	1d	.
1E	.	2e
.	2c#	[2g
=114	=114	=114
2r	1d	2g]
2D	.	2f#
2E	2.B	2.g
[2G	.	.
.	4c	4a
=115	=115	=115
4G]	2d	2b
4F	.	.
4E	1e	1cc
4D	.	.
2C	.	.
2D	4d	4b
.	4c	4a
=116	=116	=116
2E	2B	2g
2F	2A	1a
1E	1B	.
.	.	2g#
=117	=117	=117
2r	[0A	2.a
2D	.	.
.	.	4g
2D	.	2f
2C	.	4e
.	.	4d
=118	=118	=118
2.F	1A]	2c
.	.	1f
4E	.	.
2D	2r	.
2C	2A	2e
=119	=119	=119
1BB	2A	1d
.	2G	.
[1AA	2.c	1r
.	4B	.
=120	=120	=120
1AA]	2A	2r
.	2G	2e
1r	1F	2e
.	.	2d
=121	=121	=121
2r	2.E	2.g
1C	.	.
.	4F	4f
.	1G	2e
2BB	.	2d
=122	=122	=122
2C	2r	1c
2AA	1A	.
1E	.	1B
.	2G	.
=123	=123	=123
1F	1.c	2A
.	.	1a
1E	.	.
.	2B	2g
=124	=124	=124
2r	4A	1.cc
.	4B	.
1A	4c	.
.	4d	.
.	4e	.
.	4f	.
2G	2g	2b
=125	=125	=125
2F	1c	2a
2E	.	2g
2F	1c	2a
4E	.	4g
4D	.	4f
=126	=126	=126
0C	2r	1e
.	2c	.
.	2e	2r
.	2e	2g
=127	=127	=127
0r	1f	2a
.	.	2a
.	2e	2.cc
.	[2c	.
.	.	4b
=128	=128	=128
0r	2c]	2a
.	2B	2g
.	4A	2cc
.	4B	.
.	4c	2cc
.	4d	.
=129	=129	=129
0r	4e	2.b
.	4f	.
.	2.g	.
.	.	4a
.	.	2b
.	4f	.
.	[2e	[2cc
=130	=130	=130
1C	4e]	4cc]
.	4d	4b
.	2c	1a
2E	1B	.
2E	.	2g#
=131	=131	=131
2.F	1A	2.a
4E	.	4g
2D	2r	2f
2C	2G	[2e
=132	=132	=132
2F	1A	2e]
2F	.	2d
2E	2.c	[1e
4AA	.	.
4BB	4B	.
=133	=133	=133
4C	2A	1e]
4D	.	.
2E	2G	.
4AA	1c	1r
4BB	.	.
4C	.	.
4D	.	.
=134	=134	=134
4E	1B	1g
4F	.	.
4G	.	.
4E	.	.
1F	2r	1a
.	2c	.
=135	=135	=135
1C	1e	2.cc
.	.	4b
1r	2f	2a
.	[2e	2g
=136	=136	=136
1C	4e]	1cc
.	4d	.
.	4e	.
.	4f	.
1E	4g	2b
.	4f	.
.	4e	[2cc
.	4d	.
=137	=137	=137
2.F	1c	4cc]
.	.	4b
.	.	4a
4E	.	4g
2D	2d	2f
2C	[2e	2g
=138	=138	=138
1F	2e]	1a
.	2d	.
2.E	[1e	1g
4D	.	.
=139	=139	=139
4E	1e]	2r
4F	.	.
4G	.	2g
4E	.	.
4F	2r	1a
4G	.	.
2A	2c	.
=140	=140	=140
1G	1d	1b
1C	1e	1cc
=141	=141	=141
0r	2f	2a
.	2d	2.dd
.	2.g	.
.	.	4cc
.	.	4b
.	4f	4a
=142	=142	=142
2r	4e	2g
.	4d	.
2C	2e	2cc
1D	2d	4b
.	.	4a
.	2c	[2a
=143	=143	=143
1E	1B	2a]
.	.	2g#
2F	[1A	2.a
4D	.	.
4E	.	4g
=144	=144	=144
4F	1A]	2f
4G	.	.
4A	.	4e
4B	.	4d
2c	2r	[1e
[2B	2G	.
=145	=145	=145
4B]	1A	1e]
4A	.	.
1A	.	.
.	1B	1r
2G#	.	.
=146	=146	=146
1A	2c	2r
.	2A	2c
2r	2B	1d
2F	[2d	.
=147	=147	=147
2G	4d]	1e
.	8c	.
.	8B	.
2A	2c#	.
2.D	1d	2.f
4E	.	4g
=148	=148	=148
2F	1r	2a
2G	.	2b
2A	2r	2cc
2E	2G	[2b
=149	=149	=149
1F	1A	4b]
.	.	4a
.	.	2.a
1E	1B	.
.	.	4g
.	.	[2g
=150	=150	=150
2r	2c	4g]
.	.	4f
2C	2c	2e
1D	2B	2d
.	[2A	2c
=151	=151	=151
1E	4A]	1B
.	8G	.
.	8F#	.
.	2G#	.
2F	1A	1r
2F	.	.
=152	=152	=152
2E	2G	2r
2.D	2F	2d
.	2E	1e
8C	.	.
8BB	.	.
2C#	[2A	.
=153	=153	=153
2D	2A]	1f
2D	1B	.
1E	.	2g
.	[2c	2g
=154	=154	=154
1F	2c]	1a
.	1d	.
1G	.	1b
.	[2G	.
=155	=155	=155
1C	2G]	1cc
.	2A	.
2D	1B	2r
[2E	.	[2g
=156	=156	=156
2E]	1c	2g]
1F	.	1a
.	1d	.
[2G	.	[2b
=157	=157	=157
2G]	0e	2b]
1A	.	1cc
2G#	.	[2b
=158	=158	=158
2.A	2r	4b]
.	.	4a
.	2c	1a
8G	.	.
8F	.	.
2B-	1d	.
2B-	.	2g
=159	=159	=159
[0A	1e	1.a
.	2f	.
.	[2e	2g
=160	=160	=160
0A]	2e]	2f
.	1d	4e
.	.	4d
.	.	1e
.	2c#	.
=161	=161	=161
2r	2.d	0f
1D	.	.
.	8c	.
.	8B	.
.	2A	.
2D	2B	.
=162	=162	=162
1A	2c	1e
.	4B	.
.	4A	.
2G#	1B	2r
2G#	.	[2e
=163	=163	=163
2A	2r	2e]
2A	1A	2e
1F	.	1a
.	2A	.
=164	=164	=164
2E	1e	2g#
2E	.	2g#
2F	2c	2a
2F	2c	2a
=165	=165	=165
2.D	1.d	0f
4E	.	.
4F	.	.
4G	.	.
[2A	2c	.
=166	=166	=166
2A]	1B	1e
2G	.	.
2.F	2A	2r
.	[2c	[2a
8E	.	.
8D	.	.
=167	=167	=167
2C	4c]	2a]
.	4B	.
2D	1A	2a
1BB	.	1dd
.	2G#	.
=168	=168	=168
0AA	1A	4cc
.	.	4b
.	.	4a
.	.	4g
.	2r	2f
.	[2A	2e
=169	=169	=169
2r	2A]	2a
1D	2A	2a
.	1d	1f
2D	.	.
=170	=170	=170
1A	2c#	1e
.	2c#	.
2F#	2d	1r
2F#	2d	.
=171	=171	=171
1G	4B	1r
.	4c	.
.	4d	.
.	4B	.
2.E	2c	2r
.	4B	[2e
4F#	4A	.
=172	=172	=172
2G	2B	2e]
2A	1e	2e
1F	.	1a
.	2d	.
=173	=173	=173
2E	1e	2g#
2E	.	2g#
2F	2r	2a
2F	2A	2a
=174	=174	=174
0D	2A	0f
.	2A	.
.	1d	.
=175	=175	=175
0AA	0c#	0e
*-	*-	*-
!! Et in Spiritum
**kern	**kern	**kern	**kern	**kern
*Ibass	*Itenor	*Icalto	*Icalto	*Icant
!Bassus	!Tenor	!Altus 2	!Altus 1	!Cantus
*clefF4	*clefGv2	*clefG2	*clefG2	*clefG2
*k[]	*k[]	*k[]	*k[]	*k[]
*E:phr	*E:phr	*E:phr	*E:phr	*E:phr
*M4/2	*M4/2	*M4/2	*M4/2	*M4/2
=176	=176	=176	=176	=176
1r	1r	0r	1.A	0r
[1AA	[1E	.	.	.
.	.	.	2A	.
=177	=177	=177	=177	=177
2AA]	2E]	0r	2c	0r
2AA	2E	.	2c	.
2E	2G	.	1B	.
2E	2G	.	.	.
=178	=178	=178	=178	=178
0D	0F	1r	2.d	0r
.	.	.	4d	.
.	.	[1A	2d	.
.	.	.	2d	.
=179	=179	=179	=179	=179
2r	2.A	2A]	1c	1.e
2.AA	.	2A	.	.
.	4A	.	.	.
.	2A	2c	2r	.
4BB	.	.	.	.
4C	2A	2c	[2e	2e
4D	.	.	.	.
=180	=180	=180	=180	=180
2.E	0G	0B	2e]	1.g
.	.	.	2e	.
4F	.	.	.	.
1G	.	.	2d	.
.	.	.	2G	2g
=181	=181	=181	=181	=181
0D	0r	2.d	1A	1f
.	.	4d	.	.
.	.	2d	2.f	2.a
.	.	2d	.	.
.	.	.	4f	4a
=182	=182	=182	=182	=182
2.F	1r	0c	2f	2a
.	.	.	2f	2a
4F	.	.	.	.
2C	2r	.	1e	1g
2E	2G	.	.	.
=183	=183	=183	=183	=183
2F	1A	0r	1c	0r
2A	.	.	.	.
2.G	2B	.	1d	.
.	2B	.	.	.
4F	.	.	.	.
=184	=184	=184	=184	=184
1E	2c	1r	2e	1g
.	2.B	.	2e	.
2D	.	2r	2f	1a
.	4A	.	.	.
2C	[2A	2c	2e	.
=185	=185	=185	=185	=185
1BB	4A]	1d	2r	2b
.	4G#	.	.	.
.	4G#	.	2d	2b
.	4F#	.	.	.
1AA	1A	2e	4c	2.cc
.	.	.	4B	.
.	.	2e	4A	.
.	.	.	4G	4b
=186	=186	=186	=186	=186
0r	0r	2f	2F	2a
.	.	2.e	2c	2.g
.	.	.	2G	.
.	.	4d	.	4f
.	.	[2d	2B-	2d
=187	=187	=187	=187	=187
1r	0r	4d]	1A	1e
.	.	4c#	.	.
.	.	4c#	.	.
.	.	4B	.	.
[1D	.	1d	2r	2.f
.	.	.	2d	.
.	.	.	.	4g
=188	=188	=188	=188	=188
2D]	1.A	0r	2d	0a
2D	.	.	1f	.
1F	.	.	.	.
.	2A	.	2c	.
=189	=189	=189	=189	=189
2E	2c	0r	2e	0r
1G	2B	.	4d	.
.	.	.	4c	.
.	2.d	.	2B	.
2F#	.	.	2A	.
.	4c	.	.	.
=190	=190	=190	=190	=190
1G	2B	1.d	2G	0r
.	2B	.	1g	.
1D	2A	.	.	.
.	[2d	2d	[2f	.
=191	=191	=191	=191	=191
1A	2d]	2f	4f]	1r
.	.	.	4e	.
.	1c	2e	2c	.
1G	.	2.g	1d	2r
.	2B	.	.	[2g
.	.	4f	.	.
=192	=192	=192	=192	=192
1C	1c	2e	2c	2g]
.	.	2e	1G	2g
1r	1r	2d	.	1b-
.	.	[2g	2G	.
=193	=193	=193	=193	=193
0r	0r	2g]	1d	2a
.	.	1f	.	2f
.	.	.	2c	2g
.	.	2e	2c	2g
=194	=194	=194	=194	=194
1.F	2r	1f	2A	1a
.	1A	.	2d	.
.	.	1r	1c	2r
2E	2G	.	.	[2e
=195	=195	=195	=195	=195
2.A	2.c	0r	0r	2e]
.	.	.	.	2c
4G	4B	.	.	.
2F	2A	.	.	2f
2E	2G	.	.	2g
=196	=196	=196	=196	=196
1D	1F	2r	1r	1a
.	.	1d	.	.
1AA	1E	.	2r	2a
.	.	2c	2A	2a
=197	=197	=197	=197	=197
0r	0r	2.f	2d	2a
.	.	.	2d	2a
.	.	4e	.	.
.	.	2d	2f	2b-
.	.	2c	2e	[2a
=198	=198	=198	=198	=198
1r	2r	1B	2d	2a]
.	1E	.	2e	2g#
[1AA	.	1A	2r	1a
.	2E	.	[2c	.
=199	=199	=199	=199	=199
2AA]	2A	0r	2c]	1r
2AA	2A	.	2c	.
2E	1G#	.	2B	2r
2E	.	.	2B	[2e
=200	=200	=200	=200	=200
1AA	2.A	2r	2.c	2e]
.	.	1A	.	2e
.	8G	.	4d	.
.	8F	.	.	.
2C	2E	.	2e	2a
2D	2F	2A	2d	2a
=201	=201	=201	=201	=201
1BB	1D	2d	0r	1g#
.	.	2d	.	.
1AA	2E	1c#	.	2a
.	2A	.	.	2e
=202	=202	=202	=202	=202
1D	2A	2.d	2r	2.f
.	2A	.	2d	.
.	.	8c	.	4g
.	.	8B-	.	.
2F	1d	2A	2d	2a
2G	.	2B-	2d	2g
=203	=203	=203	=203	=203
1E	2c#	1G	1g	0r
.	2c#	.	.	.
2D	1d	2A	2f#	.
2D	.	2d	2f#	.
=204	=204	=204	=204	=204
2G	1B	2d	2g	2r
2G	.	2d	2g	2g
1C	2.c	1g	2e	2g
.	.	.	2c	2g
.	4B	.	.	.
=205	=205	=205	=205	=205
0r	1A	2f#	2c	2cc
.	.	2f#	2c	2cc
.	1G	1g	2e	1b
.	.	.	2d	.
=206	=206	=206	=206	=206
0r	0r	1e	4c	2.cc
.	.	.	4B	.
.	.	.	4A	.
.	.	.	4G	4b
.	.	2.f	2F	2a
.	.	.	2F	[2cc
.	.	4e	.	.
=207	=207	=207	=207	=207
1r	0r	1d	2f	2cc]
.	.	.	2f	2b
1C	.	1c	4e	1cc
.	.	.	4d	.
.	.	.	4e	.
.	.	.	4f	.
=208	=208	=208	=208	=208
2E	2r	0r	1g	1b
2E	2G	.	.	.
1F	2A	.	2r	2a
.	2A	.	2c	2a
=209	=209	=209	=209	=209
1C	2.c	0r	2e	1g
.	.	.	2e	.
.	4B	.	.	.
2D	2A	.	2f	2r
2BB	2G	.	2d	2g
=210	=210	=210	=210	=210
1AA	1c	2r	2e	2a
.	.	2c	2f#	2a
1GG	1B	2d	2.g	2b
.	.	2d	.	[2dd
.	.	.	8f	.
.	.	.	8e	.
=211	=211	=211	=211	=211
0r	0r	2.f	4d	4dd]
.	.	.	4e	8cc
.	.	.	.	8b
.	.	.	1f	2a
.	.	4e	.	.
.	.	2d	.	2b
.	.	2c	2e	2cc
=212	=212	=212	=212	=212
1D	0r	1f	1d	4b
.	.	.	.	4a
.	.	.	.	2a
1E	.	1e	2r	2.g
.	.	.	2G	.
.	.	.	.	8f
.	.	.	.	8e
=213	=213	=213	=213	=213
2G	1r	0r	1B	2d
2G	.	.	.	2g
1G	2r	.	2d	1b
.	2G	.	2d	.
=214	=214	=214	=214	=214
1.F	1A	0r	1.f	2.cc
.	.	.	.	4b
.	2.c	.	.	2a
[2C	.	.	4e	2g
.	4B	.	4d	.
=215	=215	=215	=215	=215
4C]	2A	1r	1e	2cc
4D	.	.	.	.
2E	2G	.	.	2.b
1AA	2c	2r	1e	.
.	.	.	.	4a
.	2c	2c	.	[2a
=216	=216	=216	=216	=216
1r	1B	1d	2r	2a]
.	.	.	2d	2g#
[1D	[1A	2.f	2e	1a
.	.	.	[2f	.
.	.	4e	.	.
=217	=217	=217	=217	=217
2D]	1A]	2d	2f]	1r
2AA	.	2c	2e	.
1D	1r	2f	1d	1a
.	.	2f	.	.
=218	=218	=218	=218	=218
1C	0G	1e	0g	1cc
2r	.	[1d	.	1b
[2G	.	.	.	.
=219	=219	=219	=219	=219
2G]	1A	1d]	1r	1a
2F#	.	.	.	.
1G	1B	1r	1d	[1g
=220	=220	=220	=220	=220
1C	1G	0c	1e	1g]
2.F	2.A	.	[1f	1r
4F	4A	.	.	.
=221	=221	=221	=221	=221
2D	2A	1d	2f]	1r
2D	2A	.	2f	.
2.C	[1c	1e	2e	1g
.	.	.	2c	.
4BB	.	.	.	.
=222	=222	=222	=222	=222
1AA	2c]	1c	2e	1a
.	2c	.	2f#	.
1GG	2B	2.d	2g	1b
.	2B	.	[2G	.
.	.	4d	.	.
=223	=223	=223	=223	=223
1G	1B	2d	2G]	1g
.	.	2d	1d	.
1D	1A	[1f	.	2.a
.	.	.	2d	.
.	.	.	.	4a
=224	=224	=224	=224	=224
1F	0r	2f]	1c	2a
.	.	2f	.	2a
2C	.	2e	1c	2cc
2C	.	2e	.	2cc
=225	=225	=225	=225	=225
1E	1r	1e	2r	2b
.	.	.	2G	2b
2G	2r	1d	1B	1b
2G	2G	.	.	.
=226	=226	=226	=226	=226
1F	1A	0r	2.c	1a
.	.	.	4B	.
1C	2.c	.	2A	2r
.	.	.	2G	2c
.	4B	.	.	.
=227	=227	=227	=227	=227
0C	2A	1r	2.c	1e
.	2G	.	.	.
.	.	.	4d	.
.	1c	2r	1e	2g
.	.	2c	.	2g
=228	=228	=228	=228	=228
1GG	1B	1d	2d	1g
.	.	.	1d	.
1D	2.A	2.f	.	2a
.	.	.	4c	4f
.	4G	4e	4B	4g
=229	=229	=229	=229	=229
0r	2F	2d	2A	4a
.	.	.	.	4b
.	2E	2c	2G	2cc
.	1D	1f	1d	4b
.	.	.	.	4a
.	.	.	.	[2a
=230	=230	=230	=230	=230
2r	1E	1e	1B	2a]
2E	.	.	.	2g#
2.F	1r	2.d	1A	2a
.	.	.	.	2a
4E	.	4c	.	.
=231	=231	=231	=231	=231
2D	0r	2B	1r	2b
2C	.	2A	.	2cc
2BB	.	1G#	2r	2dd
2BB	.	.	[2d	2d
=232	=232	=232	=232	=232
2AA	0r	1A	2d]	2f
1A	.	.	2c	2e
.	.	1r	2.f	[1a
2D	.	.	.	.
.	.	.	4e	.
=233	=233	=233	=233	=233
2.F	2r	0r	2d	1a]
.	1A	.	2c	.
4E	.	.	.	.
2D	.	.	1B	2r
2E	2G	.	.	[2e
=234	=234	=234	=234	=234
2AA	2.c	0r	2.A	2e]
2.F	.	.	.	2c
.	4B	.	4B	.
.	2A	.	1c	2f
4E	.	.	.	.
2C	2G	.	.	2e
=235	=235	=235	=235	=235
1D	1F	2r	1A	4d
.	.	.	.	4e
.	.	1d	.	4f
.	.	.	.	4g
1AA	1E	.	2r	4a
.	.	.	.	4b
.	.	2c	[2A	[2cc
=236	=236	=236	=236	=236
1r	0r	2.f	2A]	4cc]
.	.	.	.	4a
.	.	.	2F	2cc
.	.	4e	.	.
2r	.	2d	2G	2b
[2A	.	2c	2A	2a
=237	=237	=237	=237	=237
2A]	1r	1B	1E	2b
2G	.	.	.	2.e
2.c	2r	1A	2.e	.
.	.	.	.	4c
.	[2A	.	.	[2cc
4B	.	.	8d	.
.	.	.	8e	.
=238	=238	=238	=238	=238
2A	2A]	0r	4f	2cc]
.	.	.	4e	.
2G	2B	.	1e	2.b
1F	2c	.	.	.
.	.	.	.	4a
.	2A	.	2d	[2a
=239	=239	=239	=239	=239
1E	1B	1r	2.e	2a]
.	.	.	.	2g#
.	.	.	4d	.
2r	1A	2r	2c	[1a
[2D	.	[2d	[2f	.
=240	=240	=240	=240	=240
2D]	2r	2d]	2f]	1a]
2C	1A	2e	2e	.
2D	.	2f	1d	1r
2BB	2G	2d	.	.
=241	=241	=241	=241	=241
1AA	1c	1e	1r	2r
.	.	.	.	1a
1r	1B	1d	2r	.
.	.	.	2d	2g
=242	=242	=242	=242	=242
0r	2A	2r	2e	2cc
.	2G	1d	2g	2b
.	1A	.	2f	1a
.	.	2c	2e	.
=243	=243	=243	=243	=243
0r	1D	1f	2.d	2r
.	.	.	.	1a
.	.	.	4c	.
.	[1E	[1e	1B	.
.	.	.	.	2g
=244	=244	=244	=244	=244
1.AA	1E]	0e]	2A	1.cc
.	.	.	2c	.
.	2r	.	2A	.
2GG	[2G	.	2B	4b
.	.	.	.	4a
=245	=245	=245	=245	=245
2.C	2G]	[0e	1.c	1g
.	2E	.	.	.
4BB	.	.	.	.
2AA	2.e	.	.	2a
2GG#	.	.	2B	2b
.	4d	.	.	.
=246	=246	=246	=246	=246
[0AA	2c	0e]	2.A	1.cc
.	2B	.	.	.
.	.	.	4B	.
.	[1A	.	[1c	.
.	.	.	.	2b
=247	=247	=247	=247	=247
1AA]	1A]	[0e	1c]	1a
[1E	[1G#	.	[1B	[1b
=248	=248	=248	=248	=248
1E]	1G#]	1e]	1B]	1b]
==	==	==	==	==
*-	*-	*-	*-	*-
!!!CDT: 1525/^1526/-1594/2/2
!!!OCY: Italia
!!!AGN: Mass (Canonic)
!!!AST: renaissance, vocal
!!!ASW: Motet 1538 (Jacquet)
!!!PWK: Masses, Book 3
!!!RNB: Cadence finals: A,G,C
!!!YOR: Le Opere Complete, v. 6, p. 136
!!!YOO: Rome, Italy: Fratelli Scalera
!!!END: 1992//
!!!EED: John Miller
!!!YEC: Copyright 2000, John Miller
!!!YEN: United States of America
!!!YEM: Rights to all derivative electronic formats reserved.
!!!YEM: Refer to licensing agreement for further details.
!!!YEM: This file must be accompanied by the licensing agreement.
!!!YEM: A copy of the licensing agreement may be found at http://www.music-cog.ohio-state.edu/HumdrumDatabases/Palestrina/license.txt
!!!EMD: converted to Humdrum by Bret Aarden
